icon-themes/breeze_svg/cmd/lc_insertmultiindex.svg

<svg viewBox="0 0 24 24" xmlns="http://www.w3.org/2000/svg"><path d="m17 4v1h1v2h-1v1h1 1 1v-1h-1v-2h1v-1h-1-1zm-6 2v1h1v-1zm2 0v1h1v-1zm2 0v1h1v-1zm0 4v1h1v2h-1v1h5v-1h-1v-2h1v-1zm2 1h1v2h-1zm-8 1v1h1v-1zm2 0v1h1v-1zm2 0v1h1v-1zm0 4v1h1v2h-1v1h1 1 1 4v-1h-1v-2h1v-1h-4-1-1zm2 1h1v2h-1zm2 0h1v2h-1zm-10 1v1h1v-1zm2 0v1h1v-1zm2 0v1h1v-1z" fill="#1d99f3"/><path d="m4 4v1h10v-1zm0 2v1h6v-1zm0 4v1h8v-1zm0 2v1h4v-1zm0 4v1h7v-1zm0 2v1h2v-1z" fill="#4d4d4d"/></svg>

<svg xmlns="http://www.w3.org/2000/svg" viewBox="0 0 24 24">
 <path 
     style="fill:#1d99f3" 
     d="M 17 4 L 17 5 L 18 5 L 18 7 L 17 7 L 17 8 L 18 8 L 19 8 L 20 8 L 20 7 L 19 7 L 19 5 L 20 5 L 20 4 L 19 4 L 18 4 L 17 4 z M 11 6 L 11 7 L 12 7 L 12 6 L 11 6 z M 13 6 L 13 7 L 14 7 L 14 6 L 13 6 z M 15 6 L 15 7 L 16 7 L 16 6 L 15 6 z M 15 10 L 15 11 L 16 11 L 16 13 L 15 13 L 15 14 L 20 14 L 20 13 L 19 13 L 19 11 L 20 11 L 20 10 L 15 10 z M 17 11 L 18 11 L 18 13 L 17 13 L 17 11 z M 9 12 L 9 13 L 10 13 L 10 12 L 9 12 z M 11 12 L 11 13 L 12 13 L 12 12 L 11 12 z M 13 12 L 13 13 L 14 13 L 14 12 L 13 12 z M 13 16 L 13 17 L 14 17 L 14 19 L 13 19 L 13 20 L 14 20 L 15 20 L 16 20 L 20 20 L 20 19 L 19 19 L 19 17 L 20 17 L 20 16 L 16 16 L 15 16 L 14 16 L 13 16 z M 15 17 L 16 17 L 16 19 L 15 19 L 15 17 z M 17 17 L 18 17 L 18 19 L 17 19 L 17 17 z M 7 18 L 7 19 L 8 19 L 8 18 L 7 18 z M 9 18 L 9 19 L 10 19 L 10 18 L 9 18 z M 11 18 L 11 19 L 12 19 L 12 18 L 11 18 z "
     />
 <path 
     style="fill:#4d4d4d" 
     d="M 4 4 L 4 5 L 14 5 L 14 4 L 4 4 z M 4 6 L 4 7 L 10 7 L 10 6 L 4 6 z M 4 10 L 4 11 L 12 11 L 12 10 L 4 10 z M 4 12 L 4 13 L 8 13 L 8 12 L 4 12 z M 4 16 L 4 17 L 11 17 L 11 16 L 4 16 z M 4 18 L 4 19 L 6 19 L 6 18 L 4 18 z "
     />
 </svg>
